X:1260
T:A Chinese Aire.
C:John Malchair's Third Collection of Tunes
F:https://www.vwml.org/record/Malchair/3619/p126
F:www.vwml.org/topics/historic-dance-and-tune-books/Malchair
Z:Eric Conrad Feb 2020
W:from Rousseau's Dict.of Mus.
W:originally from Fath.Du Halde.
M:C|
L:1/8
K:Gmix  % pentatonic scale GABDE (ends in G, no sharps or flats in key signature)
% one strain, 13 measures
g2ed B2B2 | g2ed e2eg | aeed Bddg | ed GA B2B2 | BddB d2eg |
d2d2 eged | B2B2 AGBA | G2G2 A2GA | G2GA BAGA |
B2B2 BddB | d2eg d2d2 | eged B2B2 | AGBA G2G2 |]


